swiss/communes/0014.svg

<?xml version="1.0" encoding="UTF-8" standalone="no"?>
<!-- Created with Inkscape (http://www.inkscape.org/) -->
<svg
   xmlns:svg="http://www.w3.org/2000/svg"
   xmlns="http://www.w3.org/2000/svg"
   xmlns:xlink="http://www.w3.org/1999/xlink"
   version="1.0"
   width="217.39236"
   height="254.64134"
   id="svg2780">
  <defs
     id="defs2782" />
  <g
     transform="translate(-12.922595,-803.39865)"
     id="layer1">
    <path
       d="M 13.922595,804.39865 L 17.838815,968.90926 C 20.636109,1086.4169 222.60144,1086.4169 225.39874,968.90926 L 229.31496,804.39865 L 13.922595,804.39865 z"
       id="path3282"
       style="fill:#ffffff;fill-opacity:1;fill-rule:evenodd;stroke:#000000;stroke-width:2;stroke-linecap:butt;stroke-miterlimit:4;stroke-dashoffset:0;stroke-opacity:1" />
    <g
       transform="translate(-3.4469233,0)"
       id="g3252"
       style="fill:#d64129;fill-opacity:1;stroke:#000000;stroke-opacity:1">
      <path
         d="M 108.94199,92.61896 C 103.31964,52.661437 103.8061,43.157229 119.57419,23.720777 C 120.32314,22.79759 120.77372,21.833 119.3097,20.795079 C 89.179385,-0.56588185 79.643857,73.520633 101.99342,106.29921 C 79.719207,78.694414 69.980246,32.860738 82.66704,22.349226 C 84.686599,20.675942 82.557688,18.458333 80.796745,18.483951 C 38.985531,19.094017 67.827303,91.243855 95.289015,118.84973 C 65.810852,94.545115 34.765499,64.72081 47.754866,40.553432 C 48.532549,39.106513 47.039698,38.834187 45.759885,39.181882 C 2.3337308,50.94586 63.789759,119.17685 89.179385,127.11815 C 52.114793,119.68413 32.935147,101.97499 31.171584,93.04638 C 31.019369,92.275744 29.646501,92.187824 29.238946,92.85935 C 10.329837,124.01575 60.605416,131.65234 90.085877,137.80877 C 68.873672,140.53229 32.405253,141.73228 28.303798,132.44726 C 27.499895,130.62736 25.972956,132.15545 25.685385,133.19538 C 17.405394,163.13784 61.676148,153.72625 81.66955,150.40209 C 76.450303,163.26353 43.299789,172.35468 32.917192,166.736 C 31.838195,166.15209 31.042107,165.82873 30.672839,167.7335 C 25.985448,191.91211 60.527127,187.04084 88.776671,163.86822 C 76.115678,190.54843 54.140833,198.88738 44.637708,198.03228 C 41.69782,197.76774 41.672551,198.49041 42.206325,200.65069 C 48.899586,227.73955 88.761871,195.29441 96.382538,169.85316 C 89.666458,205.88597 76.946441,218.77664 67.183298,222.03534 C 65.58158,222.56995 66.038344,223.33949 66.571574,224.31005 C 75.283657,240.16742 96.963194,221.77752 99.571151,192.2224 L 103.40286,193.89878 C 98.67026,215.05004 100.14925,234.10798 116.91059,231.85875 C 117.17273,231.82357 119.17506,230.35185 117.61039,229.08647 C 105.51291,219.30302 122.00307,188.81832 108.7633,171.12662 C 54.874678,172.93176 99.247326,125.02769 108.94199,92.61896 z"
         transform="translate(0,804.33069)"
         id="path3250"
         style="opacity:1;fill:#d64129;fill-opacity:1;fill-rule:evenodd;stroke:#000000;stroke-width:1px;stroke-linecap:butt;stroke-linejoin:miter;marker:none;marker-start:none;marker-mid:none;marker-end:none;stroke-miterlimit:4;stroke-dasharray:none;stroke-dashoffset:0;stroke-opacity:1;visibility:visible;display:inline;overflow:visible;enable-background:accumulate" />
      <path
         d="M 88.409952,162.76743 C 95.457502,153.55928 95.953859,142.40947 93.642189,133.03712 C 102.75943,140.95093 116.40054,133.00936 117.08783,124.97873 C 117.83232,116.27996 113.32938,108.06894 109.36611,93.958239 C 106.00984,82.008681 93.824801,78.210568 96.411269,92.707764 C 92.966198,84.544918 84.222608,84.943573 88.573754,97.682687 C 82.463905,87.352307 76.468818,93.657615 82.013355,101.25061 C 75.784142,95.594736 68.920299,101.19574 77.602877,108.41521 C 70.340673,101.33239 61.199558,106.92605 72.982139,114.8613 C 62.604102,111.90739 60.741369,118.74152 70.857283,124.01575 C 58.931394,119.01344 55.688463,127.77391 69.236361,131.63711 C 57.961613,130.54338 55.494986,138.77486 69.163321,140.52377 C 57.981112,140.75866 55.045915,151.62705 69.510797,151.24679 C 61.712887,152.88038 55.263812,162.19452 70.348157,161.45855 C 61.829546,166.6786 60.051217,175.20807 73.559747,171.9322 C 66.695819,176.54773 67.548178,185.73004 79.794064,179.96377 C 73.427182,184.7113 76.115035,198.11087 86.947641,185.48022 C 82.938367,197.62595 90.799219,198.77816 96.350761,187.44495 C 96.092875,198.42364 106.51556,198.80527 109.60296,188.36205 C 113.09744,176.54192 110.60412,162.18557 88.409952,162.76743 z"
         transform="translate(0,804.33069)"
         id="path2476"
         style="opacity:1;fill:#d64129;fill-opacity:1;fill-rule:evenodd;stroke:#000000;stroke-width:0.99921262;stroke-linecap:butt;stroke-linejoin:round;marker:none;marker-start:none;marker-mid:none;marker-end:none;stroke-miterlimit:4;stroke-dasharray:none;stroke-dashoffset:0;stroke-opacity:1;visibility:visible;display:inline;overflow:visible;enable-background:accumulate" />
    </g>
    <use
       transform="matrix(-1,0,0,1,243.23756,0)"
       id="use3256"
       style="fill:#b20f18;fill-opacity:1"
       x="0"
       y="0"
       width="248.03149"
       height="248.03149"
       xlink:href="#g3252" />
  </g>
</svg>

<svg xmlns="http://www.w3.org/2000/svg" xmlns:xlink="http://www.w3.org/1999/xlink" version="1.0" width="217.392" height="254.641"><g transform="translate(-12.923 -803.399)"><path d="m13.923 804.399 3.916 164.51c2.797 117.508 204.762 117.508 207.56 0l3.916-164.51H13.923z" style="fill:#fff;fill-opacity:1;fill-rule:evenodd;stroke:#000;stroke-width:2;stroke-linecap:butt;stroke-miterlimit:4;stroke-dashoffset:0;stroke-opacity:1"/><g id="a" style="fill:#d64129;fill-opacity:1;stroke:#000;stroke-opacity:1"><path d="M108.942 92.619c-5.622-39.958-5.136-49.462 10.632-68.898.75-.923 1.2-1.888-.264-2.926C89.18-.565 79.644 73.521 101.993 106.3 79.72 78.694 69.98 32.861 82.667 22.35c2.02-1.673-.11-3.89-1.87-3.865-41.811.61-12.97 72.76 14.492 100.366-29.478-24.305-60.524-54.13-47.534-78.297.778-1.446-.715-1.719-1.995-1.371-43.426 11.764 18.03 79.995 43.42 87.936-37.065-7.434-56.245-25.143-58.008-34.072-.153-.77-1.525-.858-1.933-.187-18.91 31.157 31.366 38.793 60.847 44.95-21.212 2.723-57.68 3.923-61.782-5.362-.804-1.82-2.331-.292-2.619.748-8.28 29.943 35.991 20.531 55.985 17.207-5.22 12.862-38.37 21.953-48.753 16.334-1.079-.584-1.875-.907-2.244.998-4.688 24.178 29.854 19.307 58.104-3.866-12.661 26.68-34.636 35.02-44.14 34.164-2.94-.264-2.964.458-2.43 2.619 6.693 27.089 46.555-5.357 54.176-30.798-6.717 36.033-19.437 48.924-29.2 52.182-1.601.535-1.145 1.304-.611 2.275 8.712 15.857 30.391-2.532 33-32.088l3.83 1.677c-4.732 21.151-3.253 40.209 13.509 37.96.262-.035 2.264-1.507.7-2.773-12.098-9.783 4.392-40.268-8.848-57.96-53.888 1.806-9.516-46.098.179-78.507z" transform="translate(-3.447 804.33)" style="opacity:1;fill:#d64129;fill-opacity:1;fill-rule:evenodd;stroke:#000;stroke-width:1px;stroke-linecap:butt;stroke-linejoin:miter;marker:none;marker-start:none;marker-mid:none;marker-end:none;stroke-miterlimit:4;stroke-dasharray:none;stroke-dashoffset:0;stroke-opacity:1;visibility:visible;display:inline;overflow:visible;enable-background:accumulate"/><path d="M88.41 162.767c7.048-9.208 7.544-20.358 5.232-29.73 9.117 7.914 22.759-.028 23.446-8.058.744-8.699-3.759-16.91-7.722-31.02-3.356-11.95-15.541-15.748-12.955-1.251-3.445-8.163-12.188-7.764-7.837 4.975-6.11-10.33-12.105-4.025-6.56 3.568-6.23-5.656-13.094-.055-4.411 7.164-7.262-7.083-16.403-1.489-4.62 6.446-10.379-2.954-12.242 3.88-2.126 9.155-11.926-5.003-15.169 3.758-1.62 7.621-11.275-1.094-13.742 7.138-.074 8.887-11.182.235-14.117 11.103.348 10.723-7.798 1.633-14.247 10.948.837 10.212-8.518 5.22-10.297 13.75 3.212 10.473-6.864 4.616-6.012 13.798 6.234 8.032-6.367 4.747-3.679 18.147 7.154 5.516-4.01 12.146 3.851 13.298 9.403 1.965-.258 10.979 10.165 11.36 13.252.917 3.494-11.82 1.001-26.176-21.193-25.595z" transform="translate(-3.447 804.33)" style="opacity:1;fill:#d64129;fill-opacity:1;fill-rule:evenodd;stroke:#000;stroke-width:.99921262;stroke-linecap:butt;stroke-linejoin:round;marker:none;marker-start:none;marker-mid:none;marker-end:none;stroke-miterlimit:4;stroke-dasharray:none;stroke-dashoffset:0;stroke-opacity:1;visibility:visible;display:inline;overflow:visible;enable-background:accumulate"/></g><use transform="matrix(-1 0 0 1 243.238 0)" style="fill:#b20f18;fill-opacity:1" width="248.031" height="248.031" xlink:href="#a"/></g></svg>
